!!!COM: Anon.
!!!OTL: Eterno Serviet
!!!SCA: Folio 323-323'
!!!YOR: from 'Thirty-Five Conductus for Two and Three Voices', pp.96-97
!!!YOR: edited by Janet Knapp, Collegium Musicum No. 6, Yale University (1965)
!!!YOR: from the School of Notre Dame; circa 1170-1240
!!!YOO: Yale University
!!!YOY: 1965
**kern	**kern
*M6/8	*M6/8
=1	=1
4.F	4.F
8F	8F
4G	4E
=2	=2
4.A	4.D
8A	4.r
4G	.
=3	=3
4.F	8F
.	4G
8F	8F
4E	4E
=4	=4
4.G	8D
.	4C
8G	8C
4F	4D
=5	=5
8E	4.E
4D	.
8D	4.r
4E	.
=6	=6
8F	4.F
16G	.
16F	.
8E	.
4.D	4.r
=7	=7
4.C	4.G
8F	8F
4E	4G
=8	=8
4.D	4.A
8D	8A
4E	4G
=9	=9
4.F	16F
.	16E
.	4D
4.F	4.C
=10	=10
4.E	4.E
8E	8E
4D	4F
=11	=11
4.C	4.G
4.r	4.r
=12	=12
4.F	4.F
8F	8F
4G	4E
=13	=13
4.A	4.D
4.r	4.r
=14	=14
4.c	4.C
8d	4.D
8d	.
8c	.
=15	=15
4.A	4.D
8A	8D
4G	4C
=16	=16
4.F	4.F
16G	8F
16F	.
4E	4G
=17	=17
4.D	4.A
4.r	4.r
=18	=18
4.E	4.B
4.D	8c
.	4d
=19	=19
4.D	16d
.	16c
.	4B
8D	4.A
4C	.
=20	=20
4.C	4.c
8C	16B
.	16A
4D	4G
=21	=21
4.F	4.F
4.r	8F
.	4E
=22	=22
4.F	4.C
4.G	4.D
=23	=23
4.A	4.D
8A	8D
4B-	4C
=24	=24
4.A	4.F
16G	8F
16F	.
4E	4G
=25	=25
4.D	4.A
4.r	4.r
=26	=26
4.C	4.c
8D	8A
4C	4G
=27	=27
4.F	4.F
8F	8F
4E	4G
=28	=28
4.D	4.A
4.r	4.r
=29	=29
4.A	4.F
4.G	16G
.	16F
.	4E
=30	=30
4.A	4.D
8G	8D
4F	4E
=31	=31
4.G	4.C
4.G	8C
.	4D
=32	=32
4.F	4.F
4.r	4.r
=33	=33
4.A	4.F
8A	8E
4G	4E
=34	=34
4.A	4.D
4.D	4.A
=35	=35
4.F	8G
.	4F
8E	8E
4D	4F
=36	=36
4.C	4.G
4.r	4.r
=37	=37
4.G	4.C
8G	8D
4F	4C
=38	=38
4.F	4.F
8F	8F
4G	4E
=39	=39
4.A	4.D
8A	8D
4B-	4C
=40	=40
4.A	4.F
16G	8F
16F	.
4E	4G
=41	=41
4.D	4.A
4.r	4.r
=42	=42
4.E	4.A
16F	8B-
16E	.
4D	4A
=43	=43
4.C	4.G
8C	8A
4D	4G
=44	=44
4.F	4.F
8F	8F
4E	4G
=45	=45
4.D	4.A
4.r	4.r
=46	=46
4.A-	4.D
4.c	4.C
=47	=47
4.c	8F
.	4E
8d	8D
4c	4C
=48	=48
8B	4.F
4A	.
16B	16G
16A	16F
4G	4E
=49	=49
4.A	4.D
4.r	4.r
=50	=50
4.A	4.D
8A	8E
4A	4F
=51	=51
4.G	4.G
8G	16F
.	16E
8A	4D
8B-	.
=52	=52
4.c	4.C
16B-	8C
16A	.
4G	4D
=53	=53
4.F	4.F
8F	4.r
4E	.
=54	=54
4.D	4.A
8C	8c
4D	4A
=55	=55
4.F	4.c
4.G	16B-
.	16A
.	4G
=56	=56
4.A	4.F
4.B-	4.E
=57	=57
4.A	4.D
4.r	4.r
=58	=58
4.d	4.D
4.d	16F
.	16E
.	4D
=59	=59
4.c	4.C
4.B-	4.F
=60	=60
4.A	8G
.	4A
8c	8F
4B-	4G
=61	=61
4.A	4.A
4.r	4.D
=62	=62
4.B-	4.F
8A	8F
4G	4G
=63	=63
8G	8C
4F	4F
8G	8G
4A	4F
=64	=64
4.B-	8F
.	4E
8A	8D
4D	4A
=65	=65
4.A	8r
.	4A
8A	8r
4D	4A
=66	=66
4.A	4.A
8B-	8A
4A	4D
=67	=67
4.G	16G
.	16F
.	4E
8G	4.D
4F	.
=68	=68
4.A	4.D
4.r	4.r
=69	=69
4.D	4.A
8D	8A
4C	4G
=70	=70
4.F	4.F
8F	8F
4G	4E
=71	=71
16A	8D
16G	.
4G	4E
4.E	4.G
=72	=72
4.D	4.A
4.r	4.r
==	==
*-	*-
!!!ENC: David Huron
!!!YEC: Copyright 1987, David Huron
!!!EEV: 1.0
